X:1
T:Driman Duff
M:3/8
L:1/16
K:A
A-B| c4 B2| A2G2 AB| c4 B2| A4G-A| G2 ED EG| g2d-Bc-A| G4 AB| c4 B2|\
 A2G2 AB| c4 B2| A4 B2|c-B-c-d-e-g| a4 g2| ed B2 dB| A6|
